brandFactory_export/1.Light/Chica_1Light.svg

<?xml version="1.0" encoding="UTF-8"?>
<svg width="24px" height="24px" viewBox="0 0 24 24" version="1.1" xmlns="http://www.w3.org/2000/svg" xmlns:xlink="http://www.w3.org/1999/xlink">
    <title>1.Light/Chica_1Light</title>
    <g id="Symbols" stroke="none" stroke-width="1" fill="none" fill-rule="evenodd">
        <g id="1.Light/Chica_1Light" fill="#5CB615" fill-rule="nonzero">
            <path d="M11.0621849,1.41512605 C10.7596639,1.70756303 10.605042,2.17142857 10.605042,2.79327731 C10.605042,4.02016807 11.1798319,4.59495798 12.4134454,4.59495798 C13.6537815,4.59495798 14.2319328,4.02352941 14.2319328,2.79327731 C14.2319328,2.17478992 14.0773109,1.70756303 13.7714286,1.41512605 C13.4756303,1.12941176 13.0184874,0.988235294 12.4134454,0.988235294 C11.8117647,0.988235294 11.3546218,1.12941176 11.0621849,1.41512605 L11.0621849,1.41512605 Z M12.4134454,5.57983193 C10.6319328,5.57983193 9.61008403,4.56470588 9.61008403,2.79327731 C9.61008403,1.89579832 9.86554622,1.19327731 10.3697479,0.705882353 C10.8571429,0.235294118 11.5428571,0 12.4134454,0 C13.2840336,0 13.9731092,0.238655462 14.4605042,0.702521008 C14.9680672,1.18991597 15.2235294,1.89243697 15.2235294,2.79327731 C15.2235294,4.56470588 14.1983193,5.57983193 12.4134454,5.57983193 L12.4134454,5.57983193 Z M17.7546218,14.8638655 C17.8285714,14.712605 17.8420168,14.5411765 17.7882353,14.3831933 L15.8890756,9.00840336 C15.5596639,8.09747899 14.692437,7.48907563 13.7243697,7.48907563 L11.1092437,7.48907563 C10.194958,7.48907563 9.36470588,8.03361345 9.00168067,8.87731092 C8.98151261,8.91764706 8.96470588,8.95798319 8.94789916,8.99831933 L7.04537815,14.3865546 C6.93445378,14.7092437 7.10588235,15.0588235 7.42857143,15.1731092 C7.58655462,15.2302521 7.75462185,15.2235294 7.90252101,15.1529412 C8.05378151,15.0823529 8.17142857,14.9546218 8.22857143,14.7966387 L9.21680672,11.8621849 C9.31764706,11.6067227 9.60336134,11.4789916 9.85882353,11.5798319 C10.0941176,11.6705882 10.2218487,11.9226891 10.1613445,12.1680672 L9.71092437,13.5663866 L8.80672269,16.9210084 L9.39495798,16.9210084 C9.66722689,16.9210084 9.88907563,17.1428571 9.89243697,17.4117647 L9.91596639,22.010084 C9.91596639,22.3596639 10.194958,22.6386555 10.5378151,22.6386555 C10.8840336,22.6386555 11.1630252,22.3563025 11.1596639,22.010084 L11.1361345,17.4151261 C11.1361345,17.1428571 11.3546218,16.9210084 11.6268908,16.9176471 L13.2033613,16.9176471 C13.4756303,16.9176471 13.697479,17.1394958 13.7008403,17.4117647 L13.6806723,22.010084 C13.6806723,22.3563025 13.9596639,22.6386555 14.302521,22.6386555 C14.6487395,22.6352941 14.9277311,22.3563025 14.9243697,22.010084 L14.9478992,17.4117647 C14.9512605,17.1394958 15.1731092,16.9210084 15.4453782,16.9210084 L16.0369748,16.9210084 L15.1193277,13.5462185 L14.6722689,12.1647059 C14.5882353,11.9058824 14.7327731,11.6268908 14.9915966,11.5462185 C15.2504202,11.4621849 15.5294118,11.6033613 15.6168067,11.8621849 L16.6084034,14.8 C16.7260504,15.1193277 17.0756303,15.2840336 17.3983193,15.1731092 C17.5529412,15.1226891 17.6806723,15.0117647 17.7546218,14.8638655 Z M18.7260504,14.0571429 C18.8672269,14.4739496 18.8369748,14.9109244 18.6420168,15.3008403 C18.4504202,15.6840336 18.1243697,15.9697479 17.7210084,16.1042017 C17.4420168,16.205042 17.1394958,16.2252101 16.8504202,16.1579832 L17.1529412,17.2806723 C17.2235294,17.5428571 17.0689076,17.8151261 16.8067227,17.8857143 C16.7630252,17.8991597 16.7193277,17.902521 16.6722689,17.902521 L15.9260504,17.902521 L15.9058824,22.0067227 C15.9058824,22.8941176 15.1798319,23.6201681 14.2890756,23.6201681 C13.3983193,23.6201681 12.6722689,22.8941176 12.6722689,22.0033613 L12.692437,17.8991597 L12.1176471,17.8991597 L12.1378151,22 C12.1378151,22.8941176 11.4151261,23.6201681 10.5243697,23.6201681 C9.63361345,23.6201681 8.91092437,22.8941176 8.91092437,22.0033613 L8.8907563,17.8991597 L8.14453782,17.8991597 C7.86890756,17.8991597 7.65042017,17.6739496 7.65042017,17.4016807 C7.65042017,17.3579832 7.65714286,17.3176471 7.66722689,17.2773109 L7.9697479,16.1546218 C7.67731092,16.2184874 7.37478992,16.1983193 7.09243697,16.097479 C6.69243697,15.9630252 6.36638655,15.6739496 6.18151261,15.297479 C5.98655462,14.9142857 5.95630252,14.4638655 6.09747899,14.0571429 L8,8.67563025 C8.02352941,8.60504202 8.05042017,8.53781513 8.0907563,8.45714286 C8.61512605,7.26386555 9.79495798,6.49411765 11.0991597,6.49746803 L13.7142857,6.49746803 C15.0285714,6.49746803 16.2151261,7.27394958 16.7327731,8.48067227 C16.7630252,8.53445378 16.789916,8.60504202 16.8168067,8.68907563 L18.7260504,14.0571429 Z" id="Chica_1Light"></path>
        </g>
    </g>
</svg>

<svg width="24" height="24" viewBox="0 0 24 24" xmlns="http://www.w3.org/2000/svg"><path d="M11.062 1.415c-.302.293-.457.756-.457 1.378 0 1.227.575 1.802 1.808 1.802 1.24 0 1.819-.571 1.819-1.802 0-.618-.155-1.085-.46-1.378-.296-.286-.754-.427-1.359-.427-.601 0-1.058.141-1.35.427zm1.351 4.165c-1.781 0-2.803-1.015-2.803-2.787 0-.897.256-1.6.76-2.087C10.857.236 11.543 0 12.413 0c.871 0 1.56.239 2.048.703.507.487.763 1.19.763 2.09 0 1.772-1.026 2.787-2.81 2.787zm5.342 9.284a.63.63 0 00.033-.48L15.89 9.007a2.304 2.304 0 00-2.165-1.519H11.11c-.914 0-1.744.545-2.107 1.388-.02.04-.037.081-.054.121l-1.903 5.389a.62.62 0 00.384.786.61.61 0 00.474-.02.63.63 0 00.326-.356l.988-2.935a.495.495 0 01.642-.282.5.5 0 01.302.588l-.45 1.398-.904 3.355h.588a.5.5 0 01.497.49l.024 4.6a.622.622 0 101.244 0l-.024-4.596c0-.272.219-.494.49-.497h1.577a.5.5 0 01.498.494l-.02 4.598c0 .346.279.629.622.629a.624.624 0 00.621-.629l.024-4.598a.497.497 0 01.497-.491h.592l-.918-3.375-.447-1.381a.49.49 0 01.32-.619.499.499 0 01.625.316l.991 2.938c.118.32.468.484.79.373a.61.61 0 00.357-.31zm.971-.807a1.6 1.6 0 01-.084 1.244 1.585 1.585 0 01-.921.803c-.279.101-.582.121-.87.054l.302 1.123a.494.494 0 01-.48.622h-.747l-.02 4.104c0 .887-.726 1.613-1.617 1.613a1.62 1.62 0 01-1.617-1.617l.02-4.104h-.574l.02 4.101c0 .894-.723 1.62-1.614 1.62-.89 0-1.613-.726-1.613-1.617L8.89 17.9h-.746a.496.496 0 01-.478-.622l.303-1.122a1.592 1.592 0 01-.878-.058 1.574 1.574 0 01-.91-.8 1.592 1.592 0 01-.085-1.24L8 8.676a1.6 1.6 0 01.09-.219 3.276 3.276 0 013.01-1.96h2.614c1.315 0 2.501.777 3.019 1.984.03.053.057.124.084.208l1.91 5.368z" fill="#5CB615" fill-rule="nonzero"/></svg>
